docs/images/integrations/apps/unity.svg

<svg enable-background="new 0 0 108.6 108.6" viewBox="0 0 108.6 108.6" xmlns="http://www.w3.org/2000/svg"><path d="m90.3 87.1-19.5-32.8 19.5-32.8 9.4 32.8zm-43.4-3.1-24.6-24.4h39l19.5 32.8zm0-59.4 33.9-8.5-19.5 32.9h-39zm49.8-24.6-44.4 11.6-6.6 11.3-13.3-.1-32.4 31.5 32.5 31.6 13.3-.1 6.6 11.2 44.3 11.6 11.9-43.1-6.7-11.2 6.7-11.2z" fill="#070606"/></svg>

<svg version="1.1" id="Layer_1" xmlns="http://www.w3.org/2000/svg" xmlns:xlink="http://www.w3.org/1999/xlink" x="0" y="0" viewBox="0 0 108.6 108.6" xml:space="preserve" enable-background="new 0 0 108.6 108.6"><style type="text/css">.st0{fill:#070606}</style><path class="st0" d="M90.3,87.1L70.8,54.3l19.5-32.8l9.4,32.8L90.3,87.1z M46.9,84L22.3,59.6h39l19.5,32.8L46.9,84z M46.9,24.6	l33.9-8.5L61.3,49h-39L46.9,24.6z M96.7,0L52.3,11.6l-6.6,11.3l-13.3-0.1L0,54.3l32.5,31.6l13.3-0.1L52.4,97l44.3,11.6l11.9-43.1	l-6.7-11.2l6.7-11.2L96.7,0z"/></svg>
